X: 89
I: linebreak $
T: Rufty Tufty
T: for two couples facing
P: AABCC x 3
C: 
K: G major
M: 2/2
L: 1/4
P: A
 |: "D"d2 d"A"e | "D"f2 "A"e"D"f | "G"gg "D"f3/e/ |  [1 "D"d4 :|]  [2 "D"d3e/f/ :| 
P: B
"G"g"D"f "Am"e"D"d | 
"G"d"C"c "G"B3/c/ | "G"dd "C"c"G"B | "D"A2 "G"G"D"e/f/ | "G"g"D"f "Am"e"D"d | "G"d"C"c "G"B3/c/ | "G"dd "C"c"G"B | 
"D"A2 "G"G2 |: 
P: C
"G"B3/c/ dd | "C"ec "G"d2 | "G"B3/c/ dd | "C"ec "G"dB/c/ | "G"dd "C"c"G"B | 
"Dsus4"A2 "G"G2 :| 

